X:249
T:Whelan's Jig
M:6/8
L:1/8
R:Jig
K:EMin
"Emi"E3 BAF|FEB AFB|E3 BAF|"D"dAF FED|"Emi"E3 BAF|FEB AFA|BdB "D"AFA|dAF
FED:|
"Bmi"BAB "Emi"e3|fed e2d|BAB g2e|fdB "D"AFA|"Bmi"BAB "Emi"e3|fed e2f|"G"
gbg "D"faf|"Emi"edB "D"AFD:|
